icon-svg/heb.svg

<svg xmlns="http://www.w3.org/2000/svg" fill="#44739e" viewBox="0 0 24 24"><path d="M17.856 11.416h-.505v.625h.464c.209 0 .445-.129.445-.3a.362.362 0 0 0-.404-.325m-.008 1.13h-.507v.544h.411c.207 0 .4-.105.4-.278a.275.275 0 0 0-.304-.266m.902-3.098H5.254a2.622 2.622 0 0 0 0 5.243h13.5a2.622 2.622 0 0 0 0-5.243zM8.33 13.589H7.113l-.039-1.031h-.921l-.017 1.013h-1.26l-.152-2.956h1.485l-.039 1.336h.9l-.056-1.318h1.45zm1.51-1.049h-.892l-.019-.55h.911Zm4.171-1.074H11.8v.5h1.588l-.019.588h-1.591v.5h2.159l-.02.547h-3.432l-.135-2.957h3.7zm1.349 1.092h-.874v-.568h.874zm3.651-.245a.5.5 0 0 1 .441.564c0 .712-.675.753-1.035.753h-2.4l-.134-2.977h2.793a.868.868 0 0 1 .961.85.755.755 0 0 1-.625.788zm2.039-2.544a3.23 3.23 0 0 0-2.3-.95H5.254A3.255 3.255 0 0 0 2 12.07a3.259 3.259 0 0 0 3.253 3.252h13.5a3.254 3.254 0 0 0 2.3-5.553zm-.241 4.361a2.9 2.9 0 0 1-2.059.853H5.254a2.913 2.913 0 1 1 0-5.825h13.5a2.911 2.911 0 0 1 2.059 4.972z"/></svg>

<?xml version="1.0" encoding="UTF-8"?>
<svg width="24px" fill="#44739e" height="24px" viewBox="0 0 24 24" version="1.1" xmlns="http://www.w3.org/2000/svg" xmlns:xlink="http://www.w3.org/1999/xlink">
            <path d="m 17.856,11.416 h -0.505 v 0.625 0 c 0,0 0.289,0 0.464,0 0.209,0 0.445,-0.129 0.445,-0.3 a 0.362,0.362 0 0 0 -0.404,-0.325 z m -0.008,1.13 h -0.507 v 0.544 h 0.411 c 0.207,0 0.4,-0.105 0.4,-0.278 A 0.275,0.275 0 0 0 17.848,12.546 Z M 18.75,9.448 H 5.254 a 2.622,2.622 0 0 0 0,5.243 h 13.5 a 2.622,2.622 0 0 0 0,-5.243 z M 8.33,13.589 H 7.113 L 7.074,12.558 H 6.153 L 6.136,13.571 H 4.876 L 4.724,10.615 H 6.209 L 6.17,11.951 h 0.9 L 7.014,10.633 h 1.45 z M 9.84,12.54 H 8.948 L 8.929,11.99 H 9.84 Z m 4.171,-1.074 H 11.8 v 0.5 h 1.588 l -0.019,0.588 h -1.591 v 0.5 h 2.159 l -0.02,0.547 H 10.485 L 10.35,10.644 h 3.7 z m 1.349,1.092 H 14.486 V 11.99 h 0.874 z m 3.651,-0.245 a 0.5,0.5 0 0 1 0.441,0.564 c 0,0.712 -0.675,0.753 -1.035,0.753 h -2.4 v 0 l -0.134,-2.977 h 2.793 a 0.868,0.868 0 0 1 0.961,0.85 0.755,0.755 0 0 1 -0.625,0.788 z M 21.05,9.769 a 3.229,3.229 0 0 0 -2.3,-0.95 H 5.254 A 3.255,3.255 0 0 0 2,12.07 3.259,3.259 0 0 0 5.253,15.322 h 13.5 a 3.254,3.254 0 0 0 2.3,-5.553 z M 20.809,14.13 A 2.9,2.9 0 0 1 18.75,14.983 H 5.254 a 2.913,2.913 0 1 1 0,-5.825 h 13.5 a 2.911,2.911 0 0 1 2.059,4.972 z"/>

</svg>
